public/img/mo-icon-group-on.svg

<svg width="20" height="20" viewBox="0 0 20 20" fill="none" xmlns="http://www.w3.org/2000/svg">
<g clip-path="url(#clip0_44_214)">
<path d="M13.615 9.94492C12.265 9.94492 11.165 8.84492 11.165 7.49492C11.165 6.14492 12.265 5.04492 13.615 5.04492C14.965 5.04492 16.065 6.14492 16.065 7.49492C16.065 8.84492 14.965 9.94492 13.615 9.94492ZM13.615 5.82992C12.695 5.82992 11.945 6.57992 11.945 7.49992C11.945 8.41992 12.695 9.16992 13.615 9.16992C14.535 9.16992 15.285 8.41992 15.285 7.49992C15.285 6.57992 14.535 5.82992 13.615 5.82992Z" fill="#00D3BA"/>
<path d="M6.12969 7.03501C4.77969 7.03501 3.67969 5.93501 3.67969 4.58501C3.67969 3.23501 4.77969 2.13501 6.12969 2.13501C7.47969 2.13501 8.57969 3.23501 8.57969 4.58501C8.57969 5.93501 7.47969 7.03501 6.12969 7.03501ZM6.12969 2.92001C5.20969 2.92001 4.45969 3.67001 4.45969 4.59001C4.45969 5.51001 5.20969 6.26001 6.12969 6.26001C7.04969 6.26001 7.79969 5.51001 7.79969 4.59001C7.79969 3.67001 7.04969 2.92001 6.12969 2.92001Z" fill="#00D3BA"/>
<path d="M18.455 17.86H9.27002V17.08H17.895L15.995 11.945H11.515L10.51 14.885L9.77002 14.635L10.865 11.43C10.92 11.27 11.07 11.165 11.235 11.165H16.265C16.43 11.165 16.575 11.265 16.63 11.42L18.815 17.335C18.86 17.455 18.84 17.59 18.77 17.695C18.695 17.8 18.58 17.86 18.45 17.86H18.455Z" fill="#00D3BA"/>
<path d="M10.4499 14.945H1.5449C1.4199 14.945 1.2999 14.885 1.2249 14.78C1.1499 14.675 1.1349 14.545 1.1749 14.425L3.2949 8.51C3.3499 8.355 3.4999 8.25 3.6599 8.25H8.5349C8.7049 8.25 8.8549 8.36 8.9049 8.52L9.9649 11.725L9.2249 11.97L8.2549 9.035H3.9399L2.0999 14.17H10.4499V14.95V14.945Z" fill="#00D3BA"/>
</g>
<defs>
<clipPath id="clip0_44_214">
<rect width="20" height="20" fill="white"/>
</clipPath>
</defs>
</svg>

<svg xmlns="http://www.w3.org/2000/svg" width="20" height="20" fill="none" viewBox="0 0 20 20"><g fill="#00D3BA" clip-path="url(#a)"><path d="M13.615 9.945c-1.35 0-2.45-1.1-2.45-2.45s1.1-2.45 2.45-2.45 2.45 1.1 2.45 2.45-1.1 2.45-2.45 2.45m0-4.115c-.92 0-1.67.75-1.67 1.67s.75 1.67 1.67 1.67 1.67-.75 1.67-1.67-.75-1.67-1.67-1.67M6.13 7.035c-1.35 0-2.45-1.1-2.45-2.45s1.1-2.45 2.45-2.45 2.45 1.1 2.45 2.45-1.1 2.45-2.45 2.45m0-4.115c-.92 0-1.67.75-1.67 1.67s.75 1.67 1.67 1.67S7.8 5.51 7.8 4.59s-.75-1.67-1.67-1.67M18.455 17.86H9.27v-.78h8.625l-1.9-5.135h-4.48l-1.005 2.94-.74-.25 1.095-3.205a.39.39 0 0 1 .37-.265h5.03c.165 0 .31.1.365.255l2.185 5.915a.387.387 0 0 1-.365.525z"/><path d="M10.45 14.945H1.545a.391.391 0 0 1-.37-.52l2.12-5.915a.39.39 0 0 1 .365-.26h4.875c.17 0 .32.11.37.27l1.06 3.205-.74.245-.97-2.935H3.94L2.1 14.17h8.35v.78z"/></g><defs><clipPath id="a"><path fill="#fff" d="M0 0h20v20H0z"/></clipPath></defs></svg>
